app/src/assets/image/logos/sipgate.svg

<svg version="1" xmlns="http://www.w3.org/2000/svg" width="400" height="400" viewBox="0 0 300.000000 300.000000"><path fill="#fdfefe" d="M0 150V0h300v300H0V150z"/><path fill="#a1dbf3" d="M226 295c-1 0-8-1-15-2s-13-2-14-2c0-1 1-5 3-10s4-12 5-16c2-5 3-9 3-10 1-3 2-4 17-8s35-13 46-19c3-2 6-3 6-3 0 1-3 28-5 39-2 10-7 19-13 24l-4 4c1 0 0 1 0 0-1 0-4 0-7 1-6 2-17 3-22 2zm-45-6s-7-1-16-2c-9-2-21-3-26-4-6-1-15-2-19-3-4 0-8-1-8-1-1 0-3-4-5-8s-4-7-4-7c-1 0-1-1-1-2 0 0-1-2-1-4-1-3-1-4 2-3 1 0 4 1 8 1 3 0 8 1 13 1 17 2 62 0 72-3 3-1 3 1-2 15-6 18-7 21-10 21-1 0-2-1-3-1zm-91-13c-4 0-10-1-14-2-4 0-12-1-18-2-27-4-32-5-39-10l-4-2c0 1-1 0 0 0 0-1 0-2-1-3-4-3-8-14-8-21-1-7-1-8 1-7 16 6 39 14 54 18 7 1 14 3 16 3 1 1 5 2 7 2 3 0 5 1 5 2 1 1 3 7 6 12 2 6 5 11 5 11 0 1-2 0-10-1zm33-28c-8-1-18-2-22-2l-6-2-3-9c-4-13-8-28-10-43-2-9-2-18-2-38 0-29 1-41 7-67 1-7 2-13 2-14-1 0 0-1 0 0 1 0 2-2 2-5 1-3 2-6 3-7 1-2 15-3 28-3h10v51c0 33 0 53 1 56 1 4 4 9 8 11 1 1 12 1 37 2h34v3c1 4-2 24-6 42-4 20-4 19-5 20-3 2-14 3-31 5-20 2-26 2-47 0zm-44-6c-2-1-7-2-12-3-10-3-17-5-32-10-5-1-9-2-10-2 0 1-1 0 0 0 0-1-4-3-9-4-5-2-9-4-9-5v-10c2-8 4-28 7-48 1-6 2-18 3-25 2-8 3-20 4-26 3-21 5-33 5-34 1 0 4-1 7-2s5-3 5-3c-1 0 0-1 0 0 1 0 7-1 14-2 16-4 30-7 31-6 0 0 0 4-2 8-3 12-5 25-8 41-2 12-2 18-2 44 0 28 0 31 3 44 3 16 4 23 7 33 2 4 3 8 3 8 0 2-2 3-5 2zm134-5c0-1 1-6 2-10 2-11 5-33 6-40 1-10-2-9 33-9 23 0 30 0 30 1s-1 9-4 29c-1 4-1 5-7 8-4 3-10 6-15 8-4 2-7 4-7 5h-1c-1 0-5 1-9 3-9 3-20 7-25 8l-4 1 1-4zm-53-72c-3-1-5-1-6-1-1 1-1 1 0 0 0 0-2-2-4-5-5-5-6-10-6-22v-8l3 1c9 2 12 2 19 2 13 1 26-4 34-13 12-12 15-20 15-52-1-29 2-42 8-49l3-3h26c33 0 35 0 40 11l2 5v118l-2 5c-1 3-4 6-5 7-2 1-3 2-3 3 0 0 0 1-1 1 0 1-1 0 0-1s0-1-2 0c-3 1-115 2-121 1zm-16-46c-1-1-1-11 0-46 1-49 1-49 7-54 4-4 9-4 22-4h12l-3 6c-6 12-7 19-7 48 0 16-1 28-1 31-3 11-8 16-17 19-6 2-11 2-13 0zM28 63c0-2 2-18 3-27 2-11 4-17 8-22 1-2 2-3 2-4 1 1 5-2 4-3-1 0 0-1 0 0l6-2c5-2 8-3 16-3 9-1 34 2 36 3 0 1-2 6-4 13-3 6-6 16-9 22-4 12-2 11-18 14-10 2-22 4-36 8-5 2-8 2-8 2v-1zm70-14c0-3 12-38 15-41 1-1 2-1 14 0 7 1 13 2 13 3l-3 3c-4 4-5 9-5 22 0 9-1 12-2 12-5 0-30 2-31 2-1 1-1 0-1-1z"/><path fill="#6bc6ed" d="M221 294c-4-1-11-2-15-2l-8-2s2-9 6-19l6-19 4-1c9-2 34-11 48-18l15-7-1 5c-2 19-5 36-7 41-3 12-13 20-26 22-7 2-12 2-22 0zm-50-7c-21-3-32-5-45-6-7-1-14-2-14-3-2-1-12-21-11-22 0-1 5 0 10 1 15 2 61 1 75-1 7-1 12-1 12-1s-2 6-4 14c-3 7-5 14-6 16-1 4-2 4-17 2zm-85-12c-3 0-10-1-16-2s-16-2-23-3-15-2-18-4c-13-4-22-16-23-31l-1-6 9 3c21 8 48 16 67 20l7 1 5 11c3 7 6 12 6 12 0 1-8 0-13-1zm41-27c-3 0-11-1-18-2-15-2-13-1-17-11-7-21-12-57-12-80 0-11 2-38 5-53 3-19 8-41 10-42 4-1 34-3 36-2 0 1 1 15 0 53v52l3 5c2 4 3 6 7 8l6 3h66c0 8-10 62-12 64 0 1-19 4-29 4-11 1-35 2-45 1zm-64-11c-18-5-32-9-47-15l-10-4 1-3c0-2 1-10 3-18 1-8 2-21 4-29 1-8 2-18 2-22 1-4 3-16 4-26s3-24 4-30c1-7 2-13 2-14 0 0 2-2 5-2 2-1 11-3 19-5 16-4 31-7 32-6 0 0 0 5-2 11-10 39-12 76-8 113 1 14 5 34 11 53 1 2-1 2-20-3zm150 2c1-4 7-40 9-55l1-5h61l-1 2c0 1-1 8-2 15s-2 14-3 15c-1 4-29 18-51 25-14 5-15 5-14 3zm-53-74c-3-1-5-1-6-1-1 1-1 1 0 0 0 0-2-2-4-5-5-5-6-10-6-22v-8l3 1c9 2 12 2 19 2 13 1 26-4 34-13 12-12 15-20 15-52-1-29 2-42 8-49l3-3h26c33 0 35 0 40 11l2 5v118l-2 5c-1 3-4 6-5 7-2 1-3 2-3 3 0 0 0 1-1 1 0 1-1 0 0-1s0-1-2 0c-3 1-115 2-121 1zm-16-46c-1-1-1-11 0-46 1-49 1-49 7-54 4-4 9-4 22-4h12l-3 6c-6 12-7 19-7 48 0 16-1 28-1 31-3 11-8 16-17 19-6 2-11 2-13 0zM28 61c0-2 1-10 2-18 3-17 5-24 11-30C49 3 63 0 81 2c16 3 21 3 21 4 0 0-1 5-3 11-3 5-6 15-9 22l-4 12-5 1c-16 2-35 7-46 10-7 2-8 2-7-1zm70-12c0-2 14-39 15-41 1-1 23 1 25 3 1 0 1 1-1 2-1 0-2 2-4 5-1 3-2 6-2 16v13l-9 1c-6 0-13 1-17 1h-7z"/><path fill="#f39a14" d="M214 292c-8-1-15-2-15-2-1 0-1-2 1-6 2-5 7-21 10-31 0-1 2-1 4-2 11-1 39-12 53-20 5-3 9-5 9-4 0 0-4 35-6 41-3 13-12 22-25 25-8 2-13 2-31-1zm-36-5c-3 0-17-2-31-4-32-4-34-5-35-6s-10-19-10-20 2-1 5 0c13 2 41 3 58 2 16-1 28-3 31-4 2-1 2 0-1 10-5 16-9 24-10 23-1 0-4 0-7-1zm-87-12c-3 0-14-2-25-3s-24-3-28-4c-18-3-26-10-31-26-1-5-2-12-1-12 0 0 3 1 7 2 10 4 19 7 38 13 4 1 21 5 31 8l6 1 5 10c2 6 5 11 5 12s-1 1-7-1zm22-29c-18-2-17-1-20-10-7-23-11-43-12-70-1-32 2-62 11-97 3-9 2-9 24-10l15-1v53c0 52 0 52 2 56 1 3 4 6 6 8l4 3h34l35 1-1 7c-1 11-5 33-9 54-1 3-5 4-22 6-16 2-50 2-67 0zm-39-7c-26-6-67-19-66-22 0-1 0-8 5-38 1-8 2-20 3-25 1-6 2-18 3-25 1-8 3-19 3-23 1-4 2-13 3-19l2-12 5-1c13-4 25-7 32-8 4-1 9-2 12-3h6s-1 5-2 11c-14 54-14 113 0 158 2 5 3 9 3 9-1 0-5-1-9-2zm140 0s0-4 1-7c3-13 4-23 6-35 1-7 2-13 2-15l1-3h58s0 7-1 16c-3 19-1 17-23 28-16 8-44 18-44 16zm-54-74c-3-1-5-1-6-1-1 1-1 1 0 0 0 0-2-2-4-5-5-5-6-10-6-22v-8l3 1c9 2 12 2 19 2 13 1 26-4 34-13 12-12 15-20 15-52-1-29 2-42 8-49l3-3h26c33 0 35 0 40 11l2 5v118l-2 5c-1 3-4 6-5 7-2 1-3 2-3 3 0 0 0 1-1 1 0 1-1 0 0-1s0-1-2 0c-3 1-115 2-121 1zm-16-46c-1-1-1-11 0-46 1-49 1-49 7-54 4-4 9-4 22-4h12l-3 6c-6 12-7 19-7 48 0 16-1 28-1 31-3 11-8 16-17 19-6 2-11 2-13 0zM29 63c0-3 4-32 5-35 2-9 7-17 15-21 6-3 17-6 22-5 7 0 31 4 31 4l-2 6c-3 8-7 17-11 28l-3 10-9 2c-18 3-41 9-47 11h-1zm70-15c0-1 6-18 9-26 6-16 6-15 9-14 2 0 7 1 12 2 5 0 9 1 9 1s-2 2-4 5l-3 4v13c-1 13-1 14-3 14-5 0-18 1-24 1-3 1-5 1-5 0z"/><path fill="#019ee0" d="M214 292c-8-1-15-2-15-2-1 0-1-2 1-6 2-5 7-21 10-31 0-1 2-1 4-2 11-1 39-12 53-20 5-3 9-5 9-4 0 0-4 35-6 41-3 13-12 22-25 25-8 2-13 2-31-1zm-36-5c-3 0-17-2-31-4-32-4-34-5-35-6s-10-19-10-20 2-1 5 0c13 2 41 3 58 2 16-1 28-3 31-4 2-1 2 0-1 10-5 16-9 24-10 23-1 0-4 0-7-1zm-87-12c-3 0-14-2-25-3s-24-3-28-4c-18-3-26-10-31-26-1-5-2-12-1-12 0 0 3 1 7 2 10 4 19 7 38 13 4 1 21 5 31 8l6 1 5 10c2 6 5 11 5 12s-1 1-7-1zm22-29c-18-2-17-1-20-10-7-23-11-43-12-70-1-32 2-62 11-97 3-9 2-9 24-10l15-1v53c0 52 0 52 2 56 1 3 4 6 6 8l4 3h34l35 1-1 7c-1 11-5 33-9 54-1 3-5 4-22 6-16 2-50 2-67 0zm-39-7c-26-6-67-19-66-22 0-1 0-8 5-38 1-8 2-20 3-25 1-6 2-18 3-25 1-8 3-19 3-23 1-4 2-13 3-19l2-12 5-1c13-4 25-7 32-8 4-1 9-2 12-3h6s-1 5-2 11c-14 54-14 113 0 158 2 5 3 9 3 9-1 0-5-1-9-2zm140 0s0-4 1-7c3-13 4-23 6-35 1-7 2-13 2-15l1-3h58s0 7-1 16c-3 19-1 17-23 28-16 8-44 18-44 16zM29 63c0-3 4-32 5-35 2-9 7-17 15-21 6-3 17-6 22-5 7 0 31 4 31 4l-2 6c-3 8-7 17-11 28l-3 10-9 2c-18 3-41 9-47 11h-1zm70-15c0-1 6-18 9-26 6-16 6-15 9-14 2 0 7 1 12 2 5 0 9 1 9 1s-2 2-4 5l-3 4v13c-1 13-1 14-3 14-5 0-18 1-24 1-3 1-5 1-5 0z"/></svg>

<?xml version="1.0" standalone="no"?>

<!DOCTYPE svg PUBLIC "-//W3C//DTD SVG 20010904//EN"

 "http://www.w3.org/TR/2001/REC-SVG-20010904/DTD/svg10.dtd">

<svg version="1.0" xmlns="http://www.w3.org/2000/svg"

 width="300.000000pt" height="300.000000pt" viewBox="0 0 300.000000 300.000000"

 preserveAspectRatio="xMidYMid meet">

<path fill="#fdfefe" stroke="none" d="
M0 150

L0 0

L150 0

L300 0

L300 150

L300 300

L150 300

L0 300

L0 150

Z

"/>

<path fill="#a1dbf3" stroke="none" d="
M226 295

C225 295 218 294 211 293

C204 292 198 291 197 291

C197 290 198 286 200 281

C202 276 204 269 205 265

C207 260 208 256 208 255

C209 252 210 251 225 247

C240 243 260 234 271 228

C274 226 277 225 277 225

C277 226 274 253 272 264

C270 274 265 283 259 288

C257 290 255 292 255 292

C256 292 255 293 255 292

C254 292 251 292 248 293

C242 295 231 296 226 295

Z

M181 289

C181 289 174 288 165 287

C156 285 144 284 139 283

C133 282 124 281 120 280

C116 280 112 279 112 279

C111 279 109 275 107 271

C105 267 103 264 103 264

C102 264 102 263 102 262

C102 262 101 260 101 258

C100 255 100 254 103 255

C104 255 107 256 111 256

C114 256 119 257 124 257

C141 259 186 257 196 254

C199 253 199 255 194 269

C188 287 187 290 184 290

C183 290 182 289 181 289

Z

M90 276

C86 276 80 275 76 274

C72 274 64 273 58 272

C31 268 26 267 19 262

C17 261 15 260 15 260

C15 261 14 260 15 260

C15 259 15 258 14 257

C10 254 6 243 6 236

C5 229 5 228 7 229

C23 235 46 243 61 247

C68 248 75 250 77 250

C78 251 82 252 84 252

C87 252 89 253 89 254

C90 255 92 261 95 266

C97 272 100 277 100 277

C100 278 98 277 90 276

Z

M123 248

C115 247 105 246 101 246

L95 244

L92 235

C88 222 84 207 82 192

C80 183 80 174 80 154

C80 125 81 113 87 87

C88 80 89 74 89 73

C88 73 89 72 89 73

C90 73 91 71 91 68

C92 65 93 62 94 61

C95 59 109 58 122 58

L132 58

L132 109

C132 142 132 162 133 165

C134 169 137 174 141 176

C142 177 153 177 178 178

L212 178

L212 181

C213 185 210 205 206 223

C202 243 202 242 201 243

C198 245 187 246 170 248

C150 250 144 250 123 248

Z

M79 242

C77 241 72 240 67 239

C57 236 50 234 35 229

C30 228 26 227 25 227

C25 228 24 227 25 227

C25 226 21 224 16 223

C11 221 7 219 7 218

C7 217 7 213 7 208

C9 200 11 180 14 160

C15 154 16 142 17 135

C19 127 20 115 21 109

C24 88 26 76 26 75

C27 75 30 74 33 73

C36 72 38 70 38 70

C37 70 38 69 38 70

C39 70 45 69 52 68

C68 64 82 61 83 62

C83 62 83 66 81 70

C78 82 76 95 73 111

C71 123 71 129 71 155

C71 183 71 186 74 199

C77 215 78 222 81 232

C83 236 84 240 84 240

C84 242 82 243 79 242

Z

M213 237

C213 236 214 231 215 227

C217 216 220 194 221 187

C222 177 219 178 254 178

C277 178 284 178 284 179

C284 180 283 188 280 208

C279 212 279 213 273 216

C269 219 263 222 258 224

C254 226 251 228 251 229

C250 229 250 229 250 229

C249 229 245 230 241 232

C232 235 221 239 216 240

L212 241

L213 237

Z

M160 165

C157 164 155 164 154 164

C153 165 153 165 154 164

C154 164 152 162 150 159

C145 154 144 149 144 137

L144 129

L147 130

C156 132 159 132 166 132

C179 133 192 128 200 119

C212 107 215 99 215 67

C214 38 217 25 223 18

L226 15

L252 15

C285 15 287 15 292 26

L294 31

L294 90

L294 149

L292 154

C291 157 288 160 287 161

C285 162 284 163 284 164

C284 164 284 165 283 165

C283 166 282 165 283 164

C284 163 283 163 281 164

C278 165 166 166 160 165

Z

M144 119

C143 118 143 108 144 73

C145 24 145 24 151 19

C155 15 160 15 173 15

L185 15

L182 21

C176 33 175 40 175 69

C175 85 174 97 174 100

C171 111 166 116 157 119

C151 121 146 121 144 119

Z

M28 63

C28 61 30 45 31 36

C33 25 35 19 39 14

C40 12 41 11 41 10

C41 10 41 10 41 10

C42 11 46 8 45 7

C44 7 45 6 45 7

C45 7 48 6 51 5

C56 3 59 2 67 2

C76 1 101 4 103 5

C103 6 101 11 99 18

C96 24 93 34 90 40

C86 52 88 51 72 54

C62 56 50 58 36 62

C31 64 28 64 28 64

C28 64 28 64 28 63

Z

M98 49

C98 46 110 11 113 8

C114 7 115 7 127 8

C134 9 140 10 140 11

C140 11 138 13 137 14

C133 18 132 23 132 36

C132 45 131 48 130 48

C125 48 100 50 99 50

C98 51 98 50 98 49

Z

"/>

<path fill="#6bc6ed" stroke="none" d="
M221 294

C217 293 210 292 206 292

C202 291 198 290 198 290

C198 290 200 281 204 271

L210 252

L214 251

C223 249 248 240 262 233

L277 226

L276 231

C274 250 271 267 269 272

C266 284 256 292 243 294

C236 296 231 296 221 294

Z

M171 287

C150 284 139 282 126 281

C119 280 112 279 112 278

C110 277 100 257 101 256

C101 255 106 256 111 257

C126 259 172 258 186 256

C193 255 198 255 198 255

C198 255 196 261 194 269

C191 276 189 283 188 285

C187 289 186 289 171 287

Z

M86 275

C83 275 76 274 70 273

C64 272 54 271 47 270

C40 269 32 268 29 266

C16 262 7 250 6 235

L5 229

L14 232

C35 240 62 248 81 252

L88 253

L93 264

C96 271 99 276 99 276

C99 277 91 276 86 275

Z

M127 248

C124 248 116 247 109 246

C94 244 96 245 92 235

C85 214 80 178 80 155

C80 144 82 117 85 102

C88 83 93 61 95 60

C99 59 129 57 131 58

C131 59 132 73 131 111

L131 163

L134 168

C136 172 137 174 141 176

L147 179

L180 179

C198 179 213 179 213 179

C213 187 203 241 201 243

C201 244 182 247 172 247

C161 248 137 249 127 248

Z

M63 237

C45 232 31 228 16 222

L6 218

L7 215

C7 213 8 205 10 197

C11 189 12 176 14 168

C15 160 16 150 16 146

C17 142 19 130 20 120

C21 110 23 96 24 90

C25 83 26 77 26 76

C26 76 28 74 31 74

C33 73 42 71 50 69

C66 65 81 62 82 63

C82 63 82 68 80 74

C70 113 68 150 72 187

C73 201 77 221 83 240

C84 242 82 242 63 237

Z

M213 239

C214 235 220 199 222 184

L223 179

L253 179

L284 179

L283 181

C283 182 282 189 281 196

C280 203 279 210 278 211

C277 215 249 229 227 236

C213 241 212 241 213 239

Z

M160 165

C157 164 155 164 154 164

C153 165 153 165 154 164

C154 164 152 162 150 159

C145 154 144 149 144 137

L144 129

L147 130

C156 132 159 132 166 132

C179 133 192 128 200 119

C212 107 215 99 215 67

C214 38 217 25 223 18

L226 15

L252 15

C285 15 287 15 292 26

L294 31

L294 90

L294 149

L292 154

C291 157 288 160 287 161

C285 162 284 163 284 164

C284 164 284 165 283 165

C283 166 282 165 283 164

C284 163 283 163 281 164

C278 165 166 166 160 165

Z

M144 119

C143 118 143 108 144 73

C145 24 145 24 151 19

C155 15 160 15 173 15

L185 15

L182 21

C176 33 175 40 175 69

C175 85 174 97 174 100

C171 111 166 116 157 119

C151 121 146 121 144 119

Z

M28 61

C28 59 29 51 30 43

C33 26 35 19 41 13

C49 3 63 0 81 2

C97 5 102 5 102 6

C102 6 101 11 99 17

C96 22 93 32 90 39

L86 51

L81 52

C65 54 46 59 35 62

C28 64 27 64 28 61

Z

M98 49

C98 47 112 10 113 8

C114 7 136 9 138 11

C139 11 139 12 137 13

C136 13 135 15 133 18

C132 21 131 24 131 34

L131 47

L122 48

C116 48 109 49 105 49

C101 49 98 49 98 49

Z

"/>

<path fill="#f39a14" stroke="none" d="
M214 292

C206 291 199 290 199 290

C198 290 198 288 200 284

C202 279 207 263 210 253

C210 252 212 252 214 251

C225 250 253 239 267 231

C272 228 276 226 276 227

C276 227 272 262 270 268

C267 281 258 290 245 293

C237 295 232 295 214 292

Z

M178 287

C175 287 161 285 147 283

C115 279 113 278 112 277

C111 276 102 258 102 257

C102 256 104 256 107 257

C120 259 148 260 165 259

C181 258 193 256 196 255

C198 254 198 255 195 265

C190 281 186 289 185 288

C184 288 181 288 178 287

Z

M91 275

C88 275 77 273 66 272

C55 271 42 269 38 268

C20 265 12 258 7 242

C6 237 5 230 6 230

C6 230 9 231 13 232

C23 236 32 239 51 245

C55 246 72 250 82 253

L88 254

L93 264

C95 270 98 275 98 276

C98 277 97 277 91 275

Z

M113 246

C95 244 96 245 93 236

C86 213 82 193 81 166

C80 134 83 104 92 69

C95 60 94 60 116 59

L131 58

L131 111

C131 163 131 163 133 167

C134 170 137 173 139 175

L143 178

L177 178

L212 179

L211 186

C210 197 206 219 202 240

C201 243 197 244 180 246

C164 248 130 248 113 246

Z

M74 239

C48 233 7 220 8 217

C8 216 8 209 13 179

C14 171 15 159 16 154

C17 148 18 136 19 129

C20 121 22 110 22 106

C23 102 24 93 25 87

L27 75

L32 74

C45 70 57 67 64 66

C68 65 73 64 76 63

C79 63 82 63 82 63

C82 63 81 68 80 74

C66 128 66 187 80 232

C82 237 83 241 83 241

C82 241 78 240 74 239

Z

M214 239

C214 239 214 235 215 232

C218 219 219 209 221 197

C222 190 223 184 223 182

L224 179

L253 179

C269 179 282 179 282 179

C282 179 282 186 281 195

C278 214 280 212 258 223

C242 231 214 241 214 239

Z

M160 165

C157 164 155 164 154 164

C153 165 153 165 154 164

C154 164 152 162 150 159

C145 154 144 149 144 137

L144 129

L147 130

C156 132 159 132 166 132

C179 133 192 128 200 119

C212 107 215 99 215 67

C214 38 217 25 223 18

L226 15

L252 15

C285 15 287 15 292 26

L294 31

L294 90

L294 149

L292 154

C291 157 288 160 287 161

C285 162 284 163 284 164

C284 164 284 165 283 165

C283 166 282 165 283 164

C284 163 283 163 281 164

C278 165 166 166 160 165

Z

M144 119

C143 118 143 108 144 73

C145 24 145 24 151 19

C155 15 160 15 173 15

L185 15

L182 21

C176 33 175 40 175 69

C175 85 174 97 174 100

C171 111 166 116 157 119

C151 121 146 121 144 119

Z

M29 63

C29 60 33 31 34 28

C36 19 41 11 49 7

C55 4 66 1 71 2

C78 2 102 6 102 6

C102 6 101 9 100 12

C97 20 93 29 89 40

L86 50

L77 52

C59 55 36 61 30 63

C29 63 29 63 29 63

Z

M99 48

C99 47 105 30 108 22

C114 6 114 7 117 8

C119 8 124 9 129 10

C134 10 138 11 138 11

C138 11 136 13 134 16

L131 20

L131 33

C130 46 130 47 128 47

C123 47 110 48 104 48

C101 49 99 49 99 48

Z

"/>

<path fill="#019ee0" stroke="none" d="
M214 292

C206 291 199 290 199 290

C198 290 198 288 200 284

C202 279 207 263 210 253

C210 252 212 252 214 251

C225 250 253 239 267 231

C272 228 276 226 276 227

C276 227 272 262 270 268

C267 281 258 290 245 293

C237 295 232 295 214 292

Z

M178 287

C175 287 161 285 147 283

C115 279 113 278 112 277

C111 276 102 258 102 257

C102 256 104 256 107 257

C120 259 148 260 165 259

C181 258 193 256 196 255

C198 254 198 255 195 265

C190 281 186 289 185 288

C184 288 181 288 178 287

Z

M91 275

C88 275 77 273 66 272

C55 271 42 269 38 268

C20 265 12 258 7 242

C6 237 5 230 6 230

C6 230 9 231 13 232

C23 236 32 239 51 245

C55 246 72 250 82 253

L88 254

L93 264

C95 270 98 275 98 276

C98 277 97 277 91 275

Z

M113 246

C95 244 96 245 93 236

C86 213 82 193 81 166

C80 134 83 104 92 69

C95 60 94 60 116 59

L131 58

L131 111

C131 163 131 163 133 167

C134 170 137 173 139 175

L143 178

L177 178

L212 179

L211 186

C210 197 206 219 202 240

C201 243 197 244 180 246

C164 248 130 248 113 246

Z

M74 239

C48 233 7 220 8 217

C8 216 8 209 13 179

C14 171 15 159 16 154

C17 148 18 136 19 129

C20 121 22 110 22 106

C23 102 24 93 25 87

L27 75

L32 74

C45 70 57 67 64 66

C68 65 73 64 76 63

C79 63 82 63 82 63

C82 63 81 68 80 74

C66 128 66 187 80 232

C82 237 83 241 83 241

C82 241 78 240 74 239

Z

M214 239

C214 239 214 235 215 232

C218 219 219 209 221 197

C222 190 223 184 223 182

L224 179

L253 179

C269 179 282 179 282 179

C282 179 282 186 281 195

C278 214 280 212 258 223

C242 231 214 241 214 239

Z

M29 63

C29 60 33 31 34 28

C36 19 41 11 49 7

C55 4 66 1 71 2

C78 2 102 6 102 6

C102 6 101 9 100 12

C97 20 93 29 89 40

L86 50

L77 52

C59 55 36 61 30 63

C29 63 29 63 29 63

Z

M99 48

C99 47 105 30 108 22

C114 6 114 7 117 8

C119 8 124 9 129 10

C134 10 138 11 138 11

C138 11 136 13 134 16

L131 20

L131 33

C130 46 130 47 128 47

C123 47 110 48 104 48

C101 49 99 49 99 48

Z

"/>

</svg>
